docs/images/icons/arrow_right.svg

<svg width="18" height="18" viewBox="0 0 18 18" fill="none" xmlns="http://www.w3.org/2000/svg">
<path fill-rule="evenodd" clip-rule="evenodd" d="M1.55399 0.0817188L1.55128 2.39755L13.2918 2.59217L0.98149 15.6312L2.54584 17.2949L14.8561 4.25589L15.0151 16.6827L17.1975 16.7189C17.1208 10.7217 17.0613 6.07764 16.9878 0.337633L1.55399 0.0817188Z" fill="black"/>
</svg>

<svg width="18" height="18" fill="none" xmlns="http://www.w3.org/2000/svg"><path fill-rule="evenodd" clip-rule="evenodd" d="m1.554.082-.003 2.316 11.74.194-12.31 13.04 1.565 1.663 12.31-13.04.16 12.428 2.182.036-.21-16.381L1.554.082Z" fill="#000"/></svg>
